!!!COM: Mozart
!!!OTL: Zwolf Variationen in C uber ein Menuett von Johann Christian Fischer
!!!Variation: Variation 6 c
**function	**harm	**kern	**kern
*	*	*clefF4	*clefG2
*	*	*k[]	*k[]
*M3/4	*M3/4	*M3/4	*M3/4
*C:	*C:	*C:	*C:
=159	=159	=159	=159
2.D	2.V	16GLL	2dd
.	.	16d	.
.	.	16B	.
.	.	16dJJ	.
.	.	16GLL	.
.	.	16d	.
.	.	16B	.
.	.	16dJJ	.
.	.	16GLL	(16cc'LL
.	.	16d	16b'
.	.	16B	16a'
.	.	16dJJ	16g'JJ)
=160	=160	=160	=160
2.D	2.Ic	16GLL	(4ee
.	.	16e	.
.	.	16c	.
.	.	16eJJ	.
.	.	16GLL	8cc)
.	.	16e	.
.	.	16c	16r
.	.	16eJJ	16cc'
.	.	16GLL	(16eeLL
.	.	16e	16cc)
.	.	16c	(16ee
.	.	16eJJ	16ccJJ)
=161	=161	=161	=161
2.D	2.V7	16GLL	(4ff
.	.	16f	.
.	.	16d	.
.	.	16fJJ	.
.	.	16GLL	8dd)
.	.	16f	.
.	.	16d	16r
.	.	16fJJ	16dd'
.	.	16GLL	(16ffLL
.	.	16f	16dd)
.	.	16d	(16ff
.	.	16fJJ	16ddJJ)
*	*	*clefG2	*
=162	=162	=162	=162
2.T	2.I	16cLL	(4gg
.	.	16g	.
.	.	16e	.
.	.	16gJJ	.
.	.	16cLL	16eeLL)
.	.	16g	(16gg
.	.	16e	16aa
.	.	16gJJ	16ggJJ
.	.	16cLL	16cccLL
.	.	16g	16gg
.	.	16e	16aa
.	.	16gJJ	16ggJJ)
=163	=163	=163	=163
2.T	2.I	16cLL	(4gg
.	.	16g	.
.	.	16e	.
.	.	16gJJ	.
.	.	16cLL	16eeLL)
.	.	16g	(16gg
.	.	16e	16aa
.	.	16gJJ	16ggJJ
.	.	16cLL	16cccLL
.	.	16g	16gg
.	.	16e	16aa
.	.	16gJJ	16ggJJ)
=164	=164	=164	=164
4T	4I	16cLL	(16ggLL
.	.	16g	16ee)
.	.	16e	16aa'
.	.	16gJJ	16gg'JJ
4T	4V7b	16BLL	(16ffLL
.	.	16g	16dd)
.	.	16d	16gg'
.	.	16gJJ	16ff'JJ
4T	4I	16cLL	(16eeLL
.	.	16g	16cc)
.	.	16e	16ff'
.	.	16gJJ	16ee'JJ
*	*	*clefF4	*
=165	=165	=165	=165
2T	2V	16GLL	(16eeLL
.	.	16d	16dd)
.	.	16B	16g'
.	.	16dJJ	16a'JJ
.	.	16GLL	16b'LL
.	.	16d	16cc'
.	.	16B	16dd'
.	.	16dJJ	16ee'JJ
4T	4V7d	16FLL	16ff'LL
.	.	16d	16gg'
.	.	16G	16aa'
.	.	16dJJ	16bb'JJ
=166	=166	=166	=166
4T	4Ib	16ELL	(16cccLL
.	.	16c	16eee)
.	.	16G	16ee'
.	.	16cJJ	16gg'JJ
4T	4V7c	16DLL	(16ffLL
.	.	16B	16ddd)
.	.	16G	16dd'
.	.	16BJJ	16ff'JJ
4T	4I	16CLL	(16eeLL
.	.	16c	16ccc)
.	.	16G	16cc'
.	.	16cJJ	16ee'JJ
=167	=167	=167	=167
2.D	2.V	4G 4B	(16cc#LL
.	.	.	16dd
.	.	.	16ee
.	.	.	16ddJJ)
.	.	4r	(16a#LL
.	.	.	16b
.	.	.	16cc
.	.	.	16bJJ)
.	.	4r	(16f#LL
.	.	.	16g
.	.	.	16a
.	.	.	16gJJ)
*-	*-	*-	*-
